src/assets/duotone/Game.svg

<svg width="24" height="24" viewBox="0 0 24 24"  xmlns="http://www.w3.org/2000/svg">
<path d="M10.13 15.0104L9.09996 13.9804L10.09 12.9904C10.38 12.7004 10.38 12.2204 10.09 11.9304C9.79996 11.6404 9.31996 11.6404 9.02996 11.9304L8.03996 12.9204L7.07996 11.9604C6.78996 11.6704 6.30996 11.6704 6.01996 11.9604C5.72996 12.2504 5.72996 12.7304 6.01996 13.0204L6.97996 13.9804L5.98996 14.9704C5.69996 15.2604 5.69996 15.7404 5.98996 16.0304C6.13996 16.1804 6.32996 16.2504 6.51996 16.2504C6.70996 16.2504 6.89996 16.1804 7.04996 16.0304L8.03996 15.0404L9.06996 16.0704C9.21996 16.2204 9.40996 16.2904 9.59996 16.2904C9.78996 16.2904 9.97996 16.2204 10.13 16.0704C10.42 15.7804 10.42 15.3004 10.13 15.0104Z" />
<path d="M13.5398 15C12.9898 15 12.5298 14.55 12.5298 14C12.5298 13.45 12.9698 13 13.5198 13H13.5398C14.0898 13 14.5398 13.45 14.5398 14C14.5398 14.55 14.0998 15 13.5398 15Z" />
<path d="M17.4802 15C16.9302 15 16.4702 14.55 16.4702 14C16.4702 13.45 16.9102 13 17.4602 13H17.4802C18.0302 13 18.4802 13.45 18.4802 14C18.4802 14.55 18.0402 15 17.4802 15Z" />
<path d="M15.5 16.97C14.95 16.97 14.5 16.53 14.5 15.98V15.96C14.5 15.41 14.95 14.96 15.5 14.96C16.05 14.96 16.5 15.41 16.5 15.96C16.5 16.51 16.06 16.97 15.5 16.97Z" />
<path d="M15.5 13.0295C14.95 13.0295 14.5 12.5895 14.5 12.0395V12.0195C14.5 11.4695 14.95 11.0195 15.5 11.0195C16.05 11.0195 16.5 11.4695 16.5 12.0195C16.5 12.5695 16.06 13.0295 15.5 13.0295Z" />
<path opacity="0.4" d="M22 11.0697V16.6497C22 19.5997 19.6 21.9997 16.65 21.9997H7.35C4.4 21.9997 2 19.5997 2 16.6497V11.0697C2 8.11973 4.4 5.71973 7.35 5.71973H16.65C19.6 5.71973 22 8.11973 22 11.0697Z" />
<path d="M13.6399 2.71L13.6299 3.65C13.6199 4.53 12.8899 5.26 11.9999 5.26C11.8499 5.26 11.7599 5.36 11.7599 5.49C11.7599 5.62 11.8599 5.72 11.9899 5.72H10.3799C10.3699 5.65 10.3599 5.57 10.3599 5.49C10.3599 4.59 11.0899 3.86 11.9799 3.86C12.1299 3.86 12.2299 3.76 12.2299 3.63L12.2399 2.69C12.2499 2.31 12.5599 2 12.9399 2H12.9499C13.3399 2 13.6399 2.32 13.6399 2.71Z" />
</svg>

<?xml version="1.0" encoding="UTF-8"?>
<svg width="24" height="24" viewBox="0 0 24 24" xmlns="http://www.w3.org/2000/svg">
 <path d="m10.13 15.01-1.03-1.03 0.99004-0.99c0.29-0.29 0.29-0.77 0-1.06-0.29004-0.29-0.77004-0.29-1.06 0l-0.99 0.99-0.96-0.96c-0.29-0.29-0.77-0.29-1.06 0s-0.29 0.77 0 1.06l0.96 0.96-0.99 0.99c-0.29 0.29-0.29 0.77 0 1.06 0.15 0.15 0.34 0.22 0.53 0.22s0.38-0.07 0.53-0.22l0.99-0.99 1.03 1.03c0.15 0.15 0.34 0.22 0.53 0.22s0.38-0.07 0.53004-0.22c0.29-0.29 0.29-0.77 0-1.06z"/>
 <path d="m13.54 15c-0.55 0-1.01-0.45-1.01-1s0.44-1 0.99-1h0.02c0.55 0 1 0.45 1 1s-0.44 1-1 1z"/>
 <path d="m17.48 15c-0.55 0-1.01-0.45-1.01-1s0.44-1 0.99-1h0.02c0.55 0 1 0.45 1 1s-0.44 1-1 1z"/>
 <path d="m15.5 16.97c-0.55 0-1-0.44-1-0.99v-0.02c0-0.55 0.45-1 1-1s1 0.45 1 1-0.44 1.01-1 1.01z"/>
 <path d="m15.5 13.03c-0.55 0-1-0.44-1-0.99v-0.02c0-0.55 0.45-1 1-1s1 0.45 1 1-0.44 1.01-1 1.01z"/>
 <path d="m22 11.07v5.58c0 2.95-2.4 5.35-5.35 5.35h-9.3c-2.95 0-5.35-2.4-5.35-5.35v-5.58c0-2.95 2.4-5.35 5.35-5.35h9.3c2.95 0 5.35 2.4 5.35 5.35z" opacity=".4"/>
 <path d="m13.64 2.71-0.01 0.94c-0.01 0.88-0.74 1.61-1.63 1.61-0.15 0-0.24 0.1-0.24 0.23s0.1 0.23 0.23 0.23h-1.61c-0.01-0.07-0.02-0.15-0.02-0.23 0-0.9 0.73-1.63 1.62-1.63 0.15 0 0.25-0.1 0.25-0.23l0.01-0.94c0.01-0.38 0.32-0.69 0.7-0.69h0.01c0.39 0 0.69 0.32 0.69 0.71z"/>
</svg>
